src/assets/flags/np.svg

<?xml version="1.0" encoding="UTF-8"?>
<svg xmlns="http://www.w3.org/2000/svg" xmlns:xlink="http://www.w3.org/1999/xlink" width="25px" height="px" viewBox="0 0 25 19" version="1.1">
<g id="surface1">
<path style="fill-rule:evenodd;fill:rgb(80.784315%,0%,0%);fill-opacity:1;stroke-width:13.8;stroke-linecap:butt;stroke-linejoin:miter;stroke:rgb(0%,0%,38.82353%);stroke-opacity:1;stroke-miterlimit:4;" d="M 6.506667 489.473684 L 385.28 489.473684 L 137.386667 238.105263 L 394.666667 238.421053 L 6.613333 -9.473684 L 6.613333 489.473684 Z M 6.506667 489.473684 " transform="matrix(0.0366211,0,0,0.0371094,0,0.59375)"/>
<path style=" stroke:none;fill-rule:evenodd;fill:rgb(100%,100%,100%);fill-opacity:1;" d="M 6.617188 13.796875 L 5.628906 14.132812 L 6.40625 14.867188 L 5.359375 14.800781 L 5.789062 15.773438 L 4.855469 15.316406 L 4.875 16.375 L 4.1875 15.601562 L 3.792969 16.585938 L 3.457031 15.613281 L 2.714844 16.375 L 2.78125 15.347656 L 1.792969 15.773438 L 2.257812 14.84375 L 1.183594 14.867188 L 1.96875 14.1875 L 0.96875 13.796875 L 1.960938 13.464844 L 1.179688 12.726562 L 2.21875 12.796875 L 1.792969 11.824219 L 2.730469 12.28125 L 2.714844 11.21875 L 3.402344 11.992188 L 3.792969 11.007812 L 4.128906 11.984375 L 4.875 11.21875 L 4.804688 12.246094 L 5.792969 11.824219 L 5.328125 12.75 L 6.40625 12.726562 L 5.617188 13.40625 Z M 5.429688 6.941406 L 5.015625 7.253906 L 5.222656 7.425781 C 5.703125 7.085938 6.089844 6.625 6.347656 6.089844 C 6.414062 6.878906 5.699219 8.648438 3.832031 8.667969 C 3.140625 8.675781 2.476562 8.40625 1.984375 7.917969 C 1.492188 7.425781 1.214844 6.757812 1.210938 6.058594 C 1.578125 6.734375 1.804688 7.0625 2.382812 7.414062 L 2.554688 7.25 L 2.167969 6.921875 L 2.667969 6.789062 L 2.398438 6.328125 L 2.925781 6.363281 L 2.859375 5.828125 L 3.320312 6.105469 L 3.46875 5.601562 L 3.796875 6.003906 L 4.109375 5.621094 L 4.277344 6.140625 L 4.710938 5.835938 L 4.65625 6.367188 L 5.175781 6.304688 L 4.929688 6.792969 Z M 5.429688 6.941406 "/>
</g>
</svg>

<svg xmlns="http://www.w3.org/2000/svg" width="25" height="px" viewBox="0 0 25 19"><path d="M6.507 489.474H385.28L137.387 238.105l257.28.316L6.613-9.474v498.948Zm0 0" style="fill-rule:evenodd;fill:#ce0000;fill-opacity:1;stroke-width:13.8;stroke-linecap:butt;stroke-linejoin:miter;stroke:#000063;stroke-opacity:1;stroke-miterlimit:4" transform="matrix(.03662 0 0 .0371 0 .594)"/><path d="m6.617 13.797-.988.336.777.734-1.047-.066.43.972-.934-.457.02 1.059-.687-.773-.395.984-.336-.973-.742.762.066-1.027-.988.425.465-.93-1.074.024.785-.68-1-.39.992-.332-.781-.738 1.039.07-.426-.973.937.457-.015-1.062.687.773.391-.984.336.976.746-.765-.07 1.027.988-.422-.465.926 1.078-.023-.789.68ZM5.43 6.94l-.414.313.207.172c.48-.34.867-.801 1.125-1.336.066.789-.649 2.558-2.516 2.578a2.58 2.58 0 0 1-1.848-.75 2.65 2.65 0 0 1-.773-1.86c.367.676.594 1.005 1.172 1.356l.172-.164-.387-.328.5-.133-.27-.46.528.034-.067-.535.461.277.149-.503.328.402.312-.383.168.52.434-.305-.055.531.52-.062-.246.488Zm0 0" style="stroke:none;fill-rule:evenodd;fill:#fff;fill-opacity:1"/></svg>
